!!!!SEGMENT: pl-wtm--r-1475_stefani-jozef--z-olszyn-zieleni.krn
!!!cenid: 18xx:2221
!!!COM: Stefani, Józef
!!!COM-rismid: pe30024097
!!!CDT: 1800/04/16-1876/03/19
!!!CNT: Polish
!!!OTL: Z olszyn zieleni
!!!PDT:
!!!AGN:
!!!SMS-siglum: PL-Wtm
!!!SMS-shelfmark: R 1475
!!!SMS-shelfwork: W
!!!SMS-variant:
!!!SMS-altvar:
!!!NIFC-rismid: 1001122062
!!!URL-scan: http://repozytorium.nifc.pl/skany/pl-wtm-nut--r1475
!!!ONB-nifc:
**kern	**kern	**dynam	**kern	**text	**text
*part2	*part2	*part2	*part1	*part1	*part1
*	*	*	*	*verse1	*verse2
*staff3	*staff2	*	*staff1	*staff1	*staff1
*I"[Piano]	*I"[Piano]	*	*I"[Voice]	*	*
*clefF4	*clefG2	*	*clefG2	*	*
*k[f#c#]	*k[f#c#]	*	*k[f#c#]	*	*
*D:	*D:	*	*D:	*	*
*M2/4	*M2/4	*	*M2/4	*	*
=1	=1	=1	=1	=1	=1
*2\right	*2\right	*	*2\right	*	*
!	!	!	!LO:TX:t=P:problem:all\right:global	!	!
!	!	!LO:DY:b:rj	!LO:TX:i:a:t=Allegro moderato.	!	!
8A 8AA\	8aaL 8cc# 8a\	f	2r	.	.
(>32e\LLL	(>32ee\LL	.	.	.	.
32d\	32dd\	.	.	.	.
32c#\	32cc#\	.	.	.	.
32B\JJJ	32b\JJJ	.	.	.	.
8A\)	8a/)	.	.	.	.
8A 8AA/	8aa 8cc# 8a'>\	.	.	.	.
=2	=2	=2	=2	=2	=2
8d 8D\	8ff# 8dd 8a\	.	2r	.	.
*clefG2	*	*	*	*	*
(<32a/LLL	(>32aa\LLL	.	.	.	.
32g/	32gg\	.	.	.	.
32f#/	32ff#\	.	.	.	.
32e/JJJ	32ee\JJJ	.	.	.	.
8d/)	8dd\L)	.	.	.	.
8r	8cc#'>\J	.	.	.	.
!	!	!LO:DY:b	!	!	!
.	.	p	.	.	.
*clefF4	*	*	*	*	*
=3	=3	=3	=3	=3	=3
8G\L	32b|>\LLL	.	2r	.	.
.	(>32dd#X\	.	.	.	.
.	32ee\	.	.	.	.
.	32dd#\JJJ	.	.	.	.
8eJ 8B\	32ee\LLL	.	.	.	.
.	32ff#\	.	.	.	.
.	32gg\	.	.	.	.
.	32ff#\JJJ	.	.	.	.
8G\L	32gg\LLL	.	.	.	.
.	32aa#X\	.	.	.	.
.	32bb\	.	.	.	.
.	32aa#\JJJ	.	.	.	.
8eJ 8B\	32ccc#\LLL	.	.	.	.
.	32bb\	.	.	.	.
.	32gg\	.	.	.	.
.	32ee\JJJ)	.	.	.	.
!!LO:LB:g=original
=4	=4	=4	=4	=4	=4
*^	*	*	*	*	*
!	!	!	!LO:DY:b:rj	!	!	!
4ryy	8A\L	(>32dd\L	f	2r	.	.
.	.	32ee\	.	.	.	.
.	.	32ff#\	.	.	.	.
.	.	32gg\J	.	.	.	.
.	8f#J 8d\	32aa\L	.	.	.	.
.	.	32bb\	.	.	.	.
.	.	32ccc#\	.	.	.	.
.	.	32ddd\J)	.	.	.	.
4A/	8A\L	(>32ccc#\L	.	.	.	.
.	.	32bb\	.	.	.	.
.	.	32aa\	.	.	.	.
.	.	32gg\J	.	.	.	.
.	8gJ 8e\	32ff#\L	.	.	.	.
.	.	32ee\	.	.	.	.
.	.	32dd\	.	.	.	.
.	.	32cc#\J)	.	.	.	.
*v	*v	*	*	*	*	*
=5	=5	=5	=5	=5	=5
8f# 8d\	8dd\	.	2r	.	.
8r	8r	.	.	.	.
8BL 8BB\	8ddL 8f# 8d/	.	.	.	.
8EJ 8EE\	8g#XJ 8e 8d 8B/	.	.	.	.
=6	=6	=6	=6	=6	=6
8A 8AA\	8aL 8e 8c#/	.	2r	.	.
8r	16r	.	.	.	.
.	16a/Jk	.	.	.	.
.	(<8qg#X/	.	.	.	.
4r	4aTT/)	.	.	.	.
=7	=7	=7	=7	=7	=7
8r	4.aTTT/	.	2r	.	.
8gL 8e\	.	.	.	.	.
8f# 8d\	.	.	.	.	.
8eJ 8A\	(<32g#X/LLL	.	.	.	.
.	32a/	.	.	.	.
.	32b/	.	.	.	.
!	!LO:TX:b:i:t=V&colon; S&colon;	!	!	!	!
.	32cc#/JJJ)	.	.	.	.
!!LO:PB:g=original
=8	=8	=8	=8	=8	=8
!	!	!	!LO:TX:a:t=P:problem:znak segno	!	!
!	!	!LO:DY:b:rj	!LO:TX:a:t=[segno]	!	!
8DD'</L	4dd 4f# 4d/	p	4dd\	1.) Z ol-	2.) Słoń-
(<8AA/J	.	.	.	.	.
4D/)	8.aL 8.f#/	.	8.a/	-szyn	-ce
.	16f#Jk 16d/	.	16f#/	źie-	ru-
=9	=9	=9	=9	=9	=9
8DD'</L	(<4b 4g/	.	4b/	-le-	-bi-
(<8GG/J	.	.	.	.	.
4D/)	4a 4f#/)	.	4a/	-ni,	-ny,
=10	=10	=10	=10	=10	=10
*tremolo	*	*	*	*	*
!LO:TX:a:t=P:problem:mixedbeam	!	!	!	!	!
8AA/L	(<8bL 8g/	.	8b/L	z Ka-	w mo-
8A\	8aJ 8f#/)	.	8a/J	.	.
8AA/	8.gL 8.e/	.	8.g/	-lin	-dre
8A\J	.	.	.	.	.
.	16eJk 16c#/	.	16e/	czer-	głę-
*Xtremolo	*	*	*	*	*
=11	=11	=11	=11	=11	=11
*^	*	*	*	*	*
8A'>/L	2D\	4f# 4d/	.	4f#/	-wie-	-bi-
(>8A/J	.	.	.	.	.	.
4F#/)	.	4d/	.	4d/	-ni	-ny
*v	*v	*	*	*	*	*
=12	=12	=12	=12	=12	=12
4C#/	4e 4A/	.	4e/	Mych	Rzu-
8.BB/L	8.f#L 8.d/	.	8.f#/	bra-	-ci-
16E/Jk	16g#XJk 16d/	.	16g#X/	-ci	-ło
=13	=13	=13	=13	=13	=13
4A 4AA/	4a 4c#/	.	(>4a/	śpiew	iuż,
4F# 4FF#/	4cc# 4a/	.	4cc#\)	.	.
!!LO:LB:g=original
=14	=14	=14	=14	=14	=14
8D 8DD/	8r	.	4b\	W nie-	I
8r	8b 8f# 8d/	.	.	.	.
.	.	.	(<8qdd/	.	.
8E 8EE/	8r	.	8cc#\)	-bio-	sło-
8r	8g#X 8e 8d 8B/	.	8b\	-sa	-wik
=15	=15	=15	=15	=15	=15
8A 8AA\	8r	.	(>8.a\L	le-	smę-
8r	8aL 8e 8c#/	.	.	.	.
.	.	.	32cc#\LL	.	.
.	.	.	32ee\JJJ	.	.
8A 8AA\	8aJ 8e 8c#/	.	8aa 8a\)	-ci	-tnie
!	!	!LO:DY:b	!	!	!
8r	8ee\	f	8r	.	.
=16	=16	=16	=16	=16	=16
8E\L	(>8.ff#\L	.	2r	.	.
8dJ 8B 8G#X\	.	.	.	.	.
.	16ee\Jk)	.	.	.	.
*rep	*	*	*	*	*
8E\L	8dd\L	.	.	.	.
8dJ 8B 8G#X\	8b\J	.	.	.	.
*Xrep	*	*	*	*	*
=17	=17	=17	=17	=17	=17
8AA\L	8cc#\L	.	4r	.	.
8c#J 8A 8E\	(>32ee\LL	.	.	.	.
.	32dd\	.	.	.	.
.	32cc#\	.	.	.	.
.	32b\JJJ	.	.	.	.
8c# 8A 8E\	8a/)	.	8r	.	.
8r	8r	.	8a/	pa-	słod-
=18	=18	=18	=18	=18	=18
8D 8DD/	8r	.	4b\	-cie-	-ko
8r	8b 8f# 8d/	.	.	.	.
.	.	.	8qdd/	.	.
8E 8EE/	8r	.	(>8cc#\L	-rzem	po-
8r	8g#X 8e 8d 8B/	.	8b\J)	.	.
!!LO:LB:g=original
=19	=19	=19	=19	=19	=19
8A 8AA\	8r	.	4cc#\	dzie-	-nęt-
8r	8aL 8f# 8d/	.	.	.	.
8A 8AA\	8aJ 8e 8c#/	.	8a/	-ci	-nie
8F#\	8f#/	.	8f#/	i	Do
=20	=20	=20	=20	=20	=20
16G'>\LL	16g'</LL	.	4g/	szu-	zorz
(>16G\	(<16g/	.	.	.	.
16F#\	16f#/	.	.	.	.
16G\JJ)	16g/JJ)	.	.	.	.
16A'>\LL	16a'</LL	.	4a/	-mem	co
(>16A\	(<16a/	.	.	.	.
16G#X\	16g#X/	.	.	.	.
16A\JJ)	16a/JJ)	.	.	.	.
=21	=21	=21	=21	=21	=21
8.D\L	8.d/L	.	4.d/	drzew.	lśnią
32F#\LL	32f#/LL	.	.	.	.
32A\JJJ	32a/JJJ	.	.	.	.
8d\	8dd\	.	.	.	.
8F# 8FF#/	8ff# 8f#/	.	8r	.	.
=22	=22	=22	=22	=22	=22
!LO:TX:a:t=P:problem:mixedbeam	!LO:TX:a:t=P:problem:mixedbeam	!	!	!	!
(>32GG/LLL	(>32gg\LLL	.	2r	.	.
32G\	32g/	.	.	.	.
32GG/	32gg\	.	.	.	.
32G\	32g/	.	.	.	.
32GG/	32gg\	.	.	.	.
32G\	32g/	.	.	.	.
32GG/	32gg\	.	.	.	.
32G|<\JJJ	32g/JJJ	.	.	.	.
!LO:TX:a:t=P:problem:mixedbeam	!LO:TX:a:t=P:problem:mixedbeam	!	!	!	!
32AA/LLL	32aa\LLL	.	.	.	.
32A\	32a/	.	.	.	.
32AA/	32aa\	.	.	.	.
32A\	32a/	.	.	.	.
32AA/	32aa\	.	.	.	.
32A\	32a/	.	.	.	.
32AA/	32aa\	.	.	.	.
32A\JJJ)	32a/JJJ)	.	.	.	.
=23	=23	=23	=23	=23	=23
4D\	4dd\	.	8r	.	.
!	!	!	!LO:TX:a:t=P:problem:brak zakończenia łuku	!	!
.	.	.	(>4dd\	Ia	O
4r	4r	.	.	.	.
.	.	.	8ccn\	.	.
!!LO:LB:g=original
=24	=24	=24	=24	=24	=24
!	!	!LO:DY:b:rj	!	!	!
8GG/	8r	p	4b-X/)	tyl-	jam
8r	8b-X 8g 8d/	.	.	.	.
8BB-X/	8r	.	4g/	-ko	też
8r	8g 8d 8B-X/	.	.	.	.
=25	=25	=25	=25	=25	=25
8D\	8r	.	8f#/	ie-	spie-
8r	8f# 8d 8A/	.	8a/	-den	-wał
8D\	8r	.	8r	.	.
8r	8a 8f# 8d/	.	8a/	w ten	rok
=26	=26	=26	=26	=26	=26
8GG/	8r	.	4b-X\	hymn	te-
8r	8b-X 8g 8d/	.	.	.	.
!	!	!	!LO:TUP:a:problem:klamra łukowa	!	!
8E-X\	8r	.	12ccn\L	ra-	-mu
.	.	.	12b-\	.	.
8r	8ccn 8g 8cn/	.	.	.	.
.	.	.	12cc\J	.	.
=27	=27	=27	=27	=27	=27
8D\	8r	.	8.dd\L	-do-	wol-
8r	8a 8f# 8d/	.	.	.	.
.	.	.	16a\Jk	.	.
8D\	8r	.	16a/	-ści	-ny
.	.	.	16dd\	Za-	Lecz
8r	8a 8f# 8d/	.	16cc#X\	-pla-	mnie
.	.	.	16dd\	-tam	u-
=28	=28	=28	=28	=28	=28
(<8qCn/	.	.	.	.	.
!	!	!LO:HP:b	!	!	!
4cn\)	(>4ee-X 4a 4f#/	>	4ee-X\	dzię-	-wię-
8B-X\	8dd/ 8g/)	]	8dd\	-ki	-ził
8r	8r	.	8r	.	.
!!LO:PB:g=original
=29	=29	=29	=29	=29	=29
!	!	!LO:HP:b	!	!	!
4A\	(>4ccn 4f# 4d/	>	4ccn\	bo-	pa-
8G\	8b-X 8g 8d/)	]	8b-X\	-lu	-nicz
8r	8r	.	16r	.	.
.	.	.	16g/	ża-	swa-
=30	=30	=30	=30	=30	=30
*	*^	*	*	*	*
8.D\L	(>8dd/L	8.f# 8.d\	.	8dd\	-ło-	-wol-
.	16a/Jk)	.	.	16a/	-ści	-ny
16F#\Jk	16a 16d/	16ryy	.	16a/	i	wsi-
8G\L	8b-XL 8g 8d/	8ryy	.	8b-X/	skar-	-deł-
8E-X\J	8gJ 8c# 8A/	8ryy	.	8g/	-gi	-ka
*	*v	*v	*	*	*	*
=31	=31	=31	=31	=31	=31
8.D\	8.f# 8.d 8.A/	.	4f#/	me:	swe,
*clefG2	*	*	*	*	*
!	!	!LO:HP:b	!	!	!
16f#/	16aa 16dd\	<	.	.	.
8g/L	8bb-XL 8gg 8dd\	.	4r	.	.
8e-X/J	8ggJ 8cc# 8a\	[	.	.	.
=32	=32	=32	=32	=32	=32
!	!	!LO:DY:b:rj	!	!	!
8d/	8ddd 8ff# 8dd\	f	8.r	.	.
8r	8r	.	.	.	.
.	.	.	16dd\	I	wsi-
*clefF4	*	*	*	*	*
4B-X 4BB-X\	4g#X 4d/	.	8ffn\	skar-	-deł-
.	.	.	8g#X/	-gi	-ka
!!LO:LB:g=original
=33	=33	=33	=33	=33	=33
8A 8AA\	8a 8c#/	.	4a/	me:	swe,
8r	16r	.	.	.	.
.	(>32dd\LLL	.	.	.	.
.	32ee\JJJ	.	.	.	.
!	!LO:TX:a:t=P:problem:mixedbeam	!	!	!	!
4G#X 4D 4BB-X\	8ffn\L)	.	4r	.	.
.	8g#XJ 8d/	.	.	.	.
=34	=34	=34	=34	=34	=34
8A 8E 8AA\	8a 8c#/	.	4r	.	.
8A 8E 8AA\	8aa 8cc# 8a\	.	.	.	.
8r	8r	.	16r	.	.
.	.	.	16a/	Ia	U-
8D 8DD/	8fn 8d 8A/	.	16dd\	tyl-	-wię-
.	.	.	16ffn\	-ko	-źił
=35	=35	=35	=35	=35	=35
8AA 8AAA/	8e 8c# 8A/	.	8ee\	wię-	wsi-
32e\LLL	(>32ee\LLL	.	8a/	-źień	-dła,
32d\	32dd\	.	.	.	.
32c#\	32cc#\	.	.	.	.
32B\JJ	32b\JJJ	.	.	.	.
8A\J	8a/)	.	16r	.	.
.	.	.	16a/	z Klat-	o-
8D 8DD/	8fn 8d 8A/	.	16dd\	-ki	-czy
.	.	.	16ffn\	zło-	wy-
=36	=36	=36	=36	=36	=36
8AA 8AAA/	8e 8c# 8A/	.	8ee\	-co-	-łu-
32e\LLL	(>32ee\LLL	.	8a/	-nej	-pił
32d\	32dd\	.	.	.	.
32c#\	32cc#\	.	.	.	.
32B\JJ	32b\JJ	.	.	.	.
8A\J	8a\J)	.	8r	.	.
8r	8r	.	8a/	Sie-	Po-
!!LO:LB:g=original
=37	=37	=37	=37	=37	=37
32DD/LLL	(<32ddLLL 32fn/	.	4dd\	-ro-	-ła-
32D/	32d/	.	.	.	.
32DD/	32dd 32f/	.	.	.	.
32D/	32d/	.	.	.	.
32DD/	32dd 32f/	.	.	.	.
32D/	32d/	.	.	.	.
32DD/	32dd 32f/	.	.	.	.
32D/JJJ	32d/JJJ	.	.	.	.
!LO:TX:a:t=P:problem:mixedbeam	!	!	!	!	!
32FF#/LLL	32ccnLLL 32a/	.	4ccn\	-ta	-mał
32F#\	32d/	.	.	.	.
32FF#/	32cc 32a/	.	.	.	.
32F#\	32d/	.	.	.	.
32FF#/	32cc 32a/	.	.	.	.
32F#\	32d/	.	.	.	.
32FF#/	32cc 32a/	.	.	.	.
32F#\JJJ	32d/JJJ)	.	.	.	.
=38	=38	=38	=38	=38	=38
*^	*	*	*	*	*
!LO:TX:a:t=P:problem:mixedbeam	!	!	!	!	!	!
32GG/LLL	4.ryy	(<32b-XLLL 32g/	.	8b-X\	tęs-	skrzy-
32G\	.	32d/	.	.	.	.
32GG/	.	32b- 32g/	.	.	.	.
32G\	.	32d/	.	.	.	.
32GG/	.	32b- 32g/	.	16b-\	-kny	-dła
32G\	.	32d/	.	.	.	.
32GG/	.	32b- 32g/	.	16b-\	i	i
32G\JJJ	.	32d/JJJ)	.	.	.	.
!LO:TX:a:t=P:problem:mixedbeam	!	!	!	!	!	!
32AA/LLL	.	(<32aLLL 32fn/	.	8a/	roz-	zło-
32A\	.	32d/	.	.	.	.
32AA/	.	32a 32f/	.	.	.	.
32A\JJJ	.	32d/)	.	.	.	.
!LO:N:vis=4	!	!	!	!	!	!
8BB-/	32BB-X\LLL	(<32g#X 32e/	.	8g#X/	-ża-	-tą
.	32B-X\	32d/	.	.	.	.
.	32BB-\	32g# 32e/	.	.	.	.
.	32B-\JJJ	32d/JJJ)	.	.	.	.
*v	*v	*	*	*	*	*
=39	=39	=39	=39	=39	=39
8A 8AA\	8a'> 8c#/	.	8a/	-lo-	Ku-
!	!	!LO:DY:b:rj	!	!	!
8A 8AA\	8aa 8cc# 8a\	f	8a/	-ny	-pił
8r	8r	.	8r	.	.
!	!	!LO:DY:b:rj	!	!	!
8A\	8a/	p	8a/	Spiew	Te
=40	=40	=40	=40	=40	=40
4fn\	4ffn\	.	4ffn\	w Nie-	Klat-
!LO:TX:a:t=P:problem:brak zakończenia łuku	!LO:TX:a:t=P:problem:brak zakończenia łuku	!	!LO:TX:a:t=P:problem:brak zakończenia łuku	!	!
(>16d\LL	(>16dd\LL	.	(>16dd\LL	-bo	-kę
16e\	16ee\	.	16ee\	.	.
16f\	16ff\	.	16ff\	.	.
16g\JJ	16gg\JJ	.	16gg\JJ	.	.
!!LO:LB:g=original
=41	=41	=41	=41	=41	=41
4.a\)	[>4aa\)	.	4.aa\)	śle	mnie.
.	16.aa\L]	.	.	.	.
.	32a\J	.	.	.	.
8r	(>32b\L	.	8r	.	.
.	32cc#\	.	.	.	.
.	32dd\	.	.	.	.
.	32ee\J	.	.	.	.
!	!	!LO:DY:b	!	!	!
.	.	f	.	.	.
=42	=42	=42	=42	=42	=42
4D 4DD/	4ffn 4dd 4a\)	.	2r	.	.
4Fn 4FFn/	4dd/ 4a/	.	.	.	.
=43	=43	=43	=43	=43	=43
4A 4AA/	8.aaL 8.cc# 8.a\	.	2r	.	.
.	(>16aa\Jk	.	.	.	.
4r	16bb\LL	.	.	.	.
.	16ccc#\	.	.	.	.
.	16ddd\	.	.	.	.
.	16eee\JJ	.	.	.	.
=44	=44	=44	=44	=44	=44
*^	*	*	*	*	*
!	!LO:TX:a:t=P:problem:niejednoznaczny zapis łuków w t. 44-49	!	!	!	!	!
!	!LO:N:vis=2	!	!	!	!	!
2D/	(>8D\L	8.fff#\L)	.	2r	.	.
.	8F#\	.	.	.	.	.
.	.	16eee\Jk	.	.	.	.
.	8A\	(>16ddd\LL	.	.	.	.
.	.	16ccc#\	.	.	.	.
.	8d\J)	16bb\	.	.	.	.
.	.	16aa\JJ	.	.	.	.
=45	=45	=45	=45	=45	=45	=45
!	!LO:N:vis=2	!	!	!	!	!
2G/	(>8G\L	8ccc#\)	.	2r	.	.
.	8B\	4bb\	.	.	.	.
.	8d\	.	.	.	.	.
!	!	!LO:TX:b:i:t=V&colon; S&colon;	!	!	!	!
.	8e\J)	8bb\	.	.	.	.
!!LO:PB:g=original
=46	=46	=46	=46	=46	=46	=46
!	!LO:N:vis=2	!	!	!	!	!
2A/	(>8A\L	8.ee\L	.	2r	.	.
.	8c#\	.	.	.	.	.
.	.	16ff#'>\Jk	.	.	.	.
.	8e\	(>16gg\LL	.	.	.	.
.	.	16gg#X\	.	.	.	.
.	8g\J)	16bb\	.	.	.	.
.	.	16aa\JJ	.	.	.	.
=47	=47	=47	=47	=47	=47	=47
!	!LO:N:vis=2	!	!	!	!	!
2D/	(>8D\L	8ff#\L)	.	2r	.	.
.	8F#\	(>32aa\LL	.	.	.	.
.	.	32gg\	.	.	.	.
.	.	32ff#\	.	.	.	.
.	.	32ee\JJJ	.	.	.	.
.	8A\	8dd\)	.	.	.	.
.	8d\J)	(>8a/	.	.	.	.
=48	=48	=48	=48	=48	=48	=48
!	!LO:N:vis=2	!	!	!	!	!
2D/	(>8D\L	8.ff#\L)	.	2r	.	.
.	8F#\	.	.	.	.	.
.	.	16ee'>\Jk	.	.	.	.
.	8A\	(>16dd\LL	.	.	.	.
.	.	16cc#\	.	.	.	.
.	8d\J)	16b\	.	.	.	.
.	.	16a#X\JJ	.	.	.	.
=49	=49	=49	=49	=49	=49	=49
!	!LO:N:vis=2	!	!	!	!	!
2G/	(>8G\L	8cc#\)	.	2r	.	.
.	8B\	4b^>\	.	.	.	.
.	8d\	.	.	.	.	.
.	8e\J)	8b\	.	.	.	.
*v	*v	*	*	*	*	*
=50	=50	=50	=50	=50	=50
8.A\L	(>8.a\L	.	2r	.	.
32d\LL	32dd\LL	.	.	.	.
32f#\JJJ	32ff#\JJJ	.	.	.	.
8a\	8aa\)	.	.	.	.
!	!LO:TX:a:t=P:problem:znak segno	!	!LO:TX:a:t=P:problem:znak segno	!	!
!	!LO:TX:a:t=[segno]	!	!LO:TX:a:t=[segno]	!	!
8A 8AA/	8cc# 8g 8e/	.	.	.	.
!!LO:LB:g=original
=51||	=51||	=51||	=51||	=51||	=51||
!	!	!LO:DY:b:rj	!LO:TX:i:a:t=3.) Couplet	!	!
8DD'</L	4dd 4f# 4d/	p	4dd\	Oh	.
(<8AA/J	.	.	.	.	.
4D/)	8.aL 8.f#/	.	8.a/	w po-	.
.	16f#Jk 16d/	.	16f#/	-le,	.
=52	=52	=52	=52	=52	=52
8DD'</L	4b 4g/	.	4b/	w po-	.
(<8GG/J	.	.	.	.	.
4D/)	4a 4f#/	.	4a/	-le,	.
=53	=53	=53	=53	=53	=53
*tremolo	*	*	*	*	*
!LO:TX:a:t=P:problem:mixedbeam	!	!	!	!	!
8AA/L	(<8bL 8g/	.	(<8b/L	puść	.
8A\	8aJ 8f#/)	.	8a/J)	.	.
8AA/	8.gL 8.e/	.	8.g/	mnie	.
8A\J	.	.	.	.	.
.	16eJk 16c#/	.	16e/	pa-	.
*Xtremolo	*	*	*	*	*
=54	=54	=54	=54	=54	=54
*^	*	*	*	*	*
8A'>/L	2D\	4f# 4d/	.	4f#/	-cho-	.
(>8A/J	.	.	.	.	.	.
4F#/)	.	4d/	.	4d/	-le	.
*v	*v	*	*	*	*	*
=55	=55	=55	=55	=55	=55
4C#/	4e 4A/	.	4e/	puść	.
8.BB/L	8.f#L 8.d/	.	8.f#/	z piosn-	.
16E/Jk	16g#XJk 16d/	.	16g#X/	-ką	.
=56	=56	=56	=56	=56	=56
4A 4AA\	4a 4c#/	.	(>4a/	mą	.
4F# 4FF#/	4cc# 4a/	.	4cc#\)	.	.
!!LO:LB:g=original
=57	=57	=57	=57	=57	=57
8D 8DD/	8r	.	4b\	Do	.
8r	8b 8f# 8d/	.	.	.	.
.	.	.	(<8qdd/	.	.
8E 8EE/	8r	.	8cc#\)	mej	.
8r	8g#X 8e 8d 8B/	.	8b\	dru-	.
=58	=58	=58	=58	=58	=58
8A 8AA\	8r	.	(>8.a\L	-ży-	.
8r	8aL 8e 8c#/	.	.	.	.
.	.	.	32cc#\LL	.	.
.	.	.	32ee\JJJ	.	.
8A 8AA\	8aJ 8e 8c#/	.	8a/)	-ny	.
!	!	!LO:DY:b:rj	!	!	!
8r	8ee\	f	8r	.	.
=59	=59	=59	=59	=59	=59
!	!	!	!LO:TX:a:t=I.	!	!
8E\L	8.ff#\L	.	2r	.	.
8dJ 8B 8G#X\	.	.	.	.	.
.	16ee\Jk	.	.	.	.
*rep	*	*	*	*	*
8E\L	8dd\L	.	.	.	.
8dJ 8B 8G#X\	8b\J	.	.	.	.
*Xrep	*	*	*	*	*
=60	=60	=60	=60	=60	=60
8AA/	8cc#\	.	4r	.	.
8c#L 8A 8E\	(>32ee\LLL	.	.	.	.
.	32dd\	.	.	.	.
.	32cc#\	.	.	.	.
.	32b\JJ	.	.	.	.
8c#J 8A 8E\	8a\J)	.	8r	.	.
!	!	!LO:DY:b	!	!	!
8r	8r	p	8a/	Do	.
=61	=61	=61	=61	=61	=61
8D 8DD/	8r	.	4b\	mej	.
8r	8b 8f# 8d/	.	.	.	.
.	.	.	(<8qdd/	.	.
8E 8EE/	8r	.	(>8cc#\)	ie-	.
8r	8g#X 8e 8d 8B/	.	8b\)	.	.
!!LO:LB:g=original
=62	=62	=62	=62	=62	=62
8A 8AA\	8r	.	4cc#\	-dy-	.
8r	8cc#L 8a 8e/	.	.	.	.
8A 8AA\	8aJ 8e 8c#/	.	8a/	-ny	.
8F#\	8f#/	.	8f#/	Do	.
=63	=63	=63	=63	=63	=63
16G#X'>\LL	16g#X'</LL	.	4g#X/	zórz	.
(>16G#\	(<16g#/	.	.	.	.
16F##X\	16f##X/	.	.	.	.
16G#\JJ)	16g#/JJ)	.	.	.	.
16c#'>\LL	16cc#'</LL	.	4cc#\	co	.
(>16c#\	(<16cc#/	.	.	.	.
16B#X\	16b#X/	.	.	.	.
16c#\JJ)	16cc#/JJ)	.	.	.	.
=64	=64	=64	=64	=64	=64
8.F#\L	(<8.f#/L	.	4f#/	lśnią,	.
32A\LL	32a/LL	.	.	.	.
32c#\JJJ	32cc#/JJJ	.	.	.	.
8f#\	8ff#\)	.	4r	.	.
!	!	!LO:DY:b:rj	!	!	!
8F# 8FF#/	8ff# 8f#/	f	.	.	.
=65	=65	=65	=65	=65	=65
!LO:TX:a:t=P:problem:mixedbeam	!LO:TX:a:t=P:problem:mixedbeam	!	!	!	!
(>32GG#X/LLL	(>32gg#X\LLL	.	2r	.	.
32G#X\	32g#X/	.	.	.	.
32GG#/	32gg#\	.	.	.	.
32G#\	32g#/	.	.	.	.
32GG#/	32gg#\	.	.	.	.
32G#\	32g#/	.	.	.	.
32GG#/	32gg#\	.	.	.	.
32G#\JJJ	32g#/JJJ	.	.	.	.
32C#\LLL	32ccc#\LLL	.	.	.	.
32c#\	32cc#\	.	.	.	.
32C#\	32ccc#\	.	.	.	.
32c#\	32cc#\	.	.	.	.
32C#\	32ccc#\	.	.	.	.
32c#\	32cc#\	.	.	.	.
32C#\	32ccc#\	.	.	.	.
32c#\JJJ)	32cc#\JJJ)	.	.	.	.
!!LO:PB:g=original
==66	==66	==66	==66	==66	==66
*k[f#c#]	*k[f#c#]	*	*k[f#c#]	*	*
*M6/8	*M6/8	*	*M6/8	*	*
4F# 4FF#/	4ff# 4f#/	.	4r	.	.
8r	8r	.	8r	.	.
4r	4r	.	8a/	Ia	.
.	.	.	8g#X/	ci	.
8r	8r	.	8a/	dam	.
=67	=67	=67	=67	=67	=67
4E 4EE/	4b 4g#X 4e/	.	4b/	za	.
8r	8r	.	8e/	to	.
4r	4r	.	8b/	piosn-	.
.	.	.	8a#X/	-kę	.
8r	8r	.	8b/	ra-	.
=68	=68	=68	=68	=68	=68
4A 4AA\	4cc# 4a 4e/	.	4cc#\	-do-	.
8r	8r	.	8a/	-sną	.
4r	4r	.	8cc#\	Gdy	.
.	.	.	8dd\	się	.
8r	8r	.	8ee\	wśród	.
!!LO:LB:g=original
=69	=69	=69	=69	=69	=69
4D 4DD/	4b 4f# 4d/	.	4ee\	ga-	.
8r	8r	.	8dd\	-ju	.
4E 4EE/	4g#X 4e 4d 4B/	.	8dd\	roz-	.
.	.	.	8b\	-ma-	.
8r	8r	.	8ee\	-rzysz	.
==70	==70	==70	==70	==70	==70
*M2/4	*M2/4	*	*M2/4	*	*
8A 8AA\	8a 8e 8c#/	.	8ee\	wio-	.
8r	8r	.	16a/	-sną	.
.	.	.	16a/	o	.
4A 4AA\	4fn 4d/	.	8ffn\	bia-	.
.	.	.	8dd\	-łej	.
=71	=71	=71	=71	=71	=71
4A 4AA\	4e 4c#/	.	4cc#\	swéj	.
16r	16r	.	4r	.	.
!LO:N:vis=8	!	!	!	!	!
8.d 8.B-X\	16dd/LL	.	.	.	.
.	16fn/	.	.	.	.
.	16g/JJ	.	.	.	.
=72	=72	=72	=72	=72	=72
8c# 8A\	8a/	.	4r	.	.
8A 8AA/	8aa 8cc# 8a\	.	.	.	.
8r	8r	.	16r	.	.
.	.	.	16a\	A	.
8D 8DD/	8fn 8d 8A/	.	16dd\	gdy	.
.	.	.	16ffn\	u-	.
!!LO:LB:g=original
=73	=73	=73	=73	=73	=73
8AA 8AAA/	8e 8c# 8A/	.	8ee\	-pad-	.
32e\LLL	(>32ee\LLL	.	8a/	-niesz	.
32d\	32dd\	.	.	.	.
32c#\	32cc#\	.	.	.	.
32B\JJ	32b\JJ	.	.	.	.
8A\J	8a\J)	.	16r	.	.
.	.	.	16a/	wśród	.
8D 8DD/	8fn 8d 8A/	.	16dd\	walk	.
.	.	.	16ffn\	Ko-	.
=74	=74	=74	=74	=74	=74
8AA 8AAA/	8e 8c# 8A/	.	8ee\	-le-	.
32e\LLL	(>32ee\LLL	.	8a/	-i	.
32d\	32dd\	.	.	.	.
32c#\	32cc#\	.	.	.	.
32B\JJ	32b\JJ	.	.	.	.
8A\J	8a\J)	.	16r	.	.
.	.	.	16a/	Dam	.
!	!	!LO:DY:b	!	!	!
8r	8r	p	16a/	nie-	.
.	.	.	16a/	-śmier-	.
=75	=75	=75	=75	=75	=75
32DD/LLL	32ddLLL 32fn/	.	4dd\	-tel-	.
32D/	32d/	.	.	.	.
32DD/	32dd 32f/	.	.	.	.
32D/	32d/	.	.	.	.
32DD/	32dd 32f/	.	.	.	.
32D/	32d/	.	.	.	.
32DD/	32dd 32f/	.	.	.	.
32D/JJJ	32d/JJJ	.	.	.	.
!LO:TX:a:t=P:problem:mixedbeam	!	!	!	!	!
32FF#/LLL	32ccnLLL 32a/	.	4ccn\	-ny	.
32F#\	32d/	.	.	.	.
32FF#/	32cc 32a/	.	.	.	.
32F#\	32d/	.	.	.	.
32FF#/	32cc 32a/	.	.	.	.
32F#\	32d/	.	.	.	.
32FF#/	32cc 32a/	.	.	.	.
32F#\JJJ	32d/JJJ	.	.	.	.
!!LO:LB:g=original
=76	=76	=76	=76	=76	=76
!LO:TX:a:t=P:problem:mixedbeam	!	!	!	!	!
32GG/LLL	(>32b-XLLL 32g/	.	4b-X/	hymn	.
32G\	32d/	.	.	.	.
32GG/	32b- 32g/	.	.	.	.
32G\	32d/	.	.	.	.
32GG/	32b- 32g/	.	.	.	.
32G\	32d/	.	.	.	.
32GG/	32b- 32g/	.	.	.	.
32G\JJJ	32d/JJJ	.	.	.	.
!LO:TX:a:t=P:problem:mixedbeam	!	!	!	!	!
32AA/LLL	32aLLL 32fn/	.	(<8a/L	na-	.
32A\	32d/	.	.	.	.
32AA/	32a 32f/	.	.	.	.
32A\JJJ	32d/	.	.	.	.
!LO:TX:a:t=P:problem:mixedbeam	!	!	!	!	!
32BB-X/LLL	32g#X 32e/	.	8g#X/J)	.	.
32B-X\	32d/	.	.	.	.
32BB-/	32g# 32e/	.	.	.	.
32B-\JJJ	32d/JJJ)	.	.	.	.
=77	=77	=77	=77	=77	=77
8A 8AA\	8a 8c#/	.	8a/	-dzie-	.
8A 8AA\	8aa 8cc# 8a\	.	8a/	-i	.
8r	8r	.	8r	.	.
8A\	8a/	.	8a/	Mo-	.
=78	=78	=78	=78	=78	=78
4fn\	4ffn\	.	4ffn\	-gi-	.
4c#\	4cc#\	.	4cc#\	-le	.
=79	=79	=79	=79	=79	=79
8.d\	8.dd\	.	8dd\	twej.	.
.	.	.	8r	.	.
16r	16aa|>\	.	.	.	.
4r	(>16bb\LL	.	4r	.	.
.	16ccc#\	.	.	.	.
.	16ddd\	.	.	.	.
!	!LO:TX:b:i:t=V&colon; S&colon;	!	!	!	!
.	16eee\JJ	.	.	.	.
!!LO:PB:g=original
=80	=80	=80	=80	=80	=80
*^	*	*	*	*	*
!	!LO:TX:a:t=P:problem:niejednoznaczny zapis łuków w t. 80-85	!	!	!	!	!
!	!LO:N:vis=2	!	!	!	!	!
2D/	(>8D\L	8.fff#\L)	.	2r	.	.
.	8F#\	.	.	.	.	.
.	.	16eee|>\Jk	.	.	.	.
.	8A\	(>16ddd\LL	.	.	.	.
.	.	16ccc#\	.	.	.	.
.	8d\J)	16bb\	.	.	.	.
.	.	16aa#X\JJ)	.	.	.	.
=81	=81	=81	=81	=81	=81	=81
!	!LO:N:vis=2	!	!	!	!	!
2G/	8G\L	8ccc#\	.	2r	.	.
.	8B\	4bb^<\	.	.	.	.
.	8d\	.	.	.	.	.
.	8e\J	(>8bb\	.	.	.	.
=82	=82	=82	=82	=82	=82	=82
!	!LO:N:vis=2	!	!	!	!	!
2A/	(>8A\L	8.ee\L)	.	2r	.	.
.	8c#\	.	.	.	.	.
.	.	16ff#\Jk	.	.	.	.
.	8e\	16gg\LL	.	.	.	.
.	.	16gg#X\	.	.	.	.
.	8g\J)	16bb\	.	.	.	.
.	.	16aa\JJ	.	.	.	.
=83	=83	=83	=83	=83	=83	=83
!	!LO:N:vis=2	!	!	!	!	!
2D/	8D\L	8ff#\L	.	2r	.	.
!	!	!LO:TX:a:t=P:problem:niejednonaczne zakończenie łuku	!	!	!	!
.	8F#\	(>32aa\LL	.	.	.	.
.	.	32gg\	.	.	.	.
.	.	32ff#\	.	.	.	.
.	.	32ee\JJJ	.	.	.	.
.	8A\	8dd\	.	.	.	.
.	8d\J	8a/	.	.	.	.
!!LO:LB:g=original
=84	=84	=84	=84	=84	=84	=84
!	!LO:N:vis=2	!	!	!	!	!
2D/	(>8D\L	8.ff#\L)	.	2r	.	.
.	8F#\	.	.	.	.	.
.	.	16ee|>\Jk	.	.	.	.
.	8A\	(>16dd\LL	.	.	.	.
.	.	16cc#\	.	.	.	.
.	8d\J)	16b\	.	.	.	.
.	.	16a#X\JJ	.	.	.	.
=85	=85	=85	=85	=85	=85	=85
!	!LO:N:vis=2	!	!	!	!	!
2G/	(>8G\L	8cc#\)	.	2r	.	.
.	8B\	4b^>\	.	.	.	.
.	8d\	.	.	.	.	.
.	8e\J)	8b\	.	.	.	.
*v	*v	*	*	*	*	*
=86	=86	=86	=86	=86	=86
8.A\L	(>8.a\L	.	2r	.	.
32d\LL	32dd\LL	.	.	.	.
32f#\JJJ	32ff#\JJJ	.	.	.	.
8a\	8aa\)	.	.	.	.
8A 8AA/	8cc# 8g 8e/	.	.	.	.
=87	=87	=87	=87	=87	=87
8A 8D\	8dd 8f# 8d/	.	2r	.	.
16r	16r	.	.	.	.
*clefG2	*	*	*	*	*
(<32f#/LLL	(>32ff#\LLL	.	.	.	.
32a/JJJ	32aa\JJJ	.	.	.	.
8dd\)	8ddd\)	.	.	.	.
8r	8r	.	.	.	.
==	==	==	==	==	==
*-	*-	*-	*-	*-	*-
!!!system-decoration: s1{(s2,s3)}
!!!RDF**kern: | = vertical stroke
!!!RDF**kern: > = above
!!!RDF**kern: < = below
!!!EED: Antoni Szymański
!!!EST: 2021-06-05
!!!ENC: Berenika Jozajtis
!!!END: 2021-05-19
